X:1
T:Title
%%score { ( 1 4 ) | ( 2 3 ) }
L:1/8
M:6/8
K:D
V:1 treble nm="Grand Piano"
V:4 treble 
V:2 bass 
V:3 bass 
V:1
 z3 z2[Q:1/4=95] D | F2 [FA] [Fd]2 [Ac] | [DAc]2 [DGB] [DGB]2 [DGB] | [Fd]2 [GB] [FA]2 F | %4
[M:5/8] BA[A,DF][K:bass] [A,CE]2 |[M:1/8] [F,D] |[M:3/4][K:treble] [A,DF]2 [DGB] [A,FA]2 F | %7
 G2 A B2 B | dc B A2 d | [EAc]2 [CGe] [DFd]3 | z2 z .[Fd]3 | B[DGB] [DGB] [DGB]3 | %12
 [FA]2 [FA] [Fd]2 F |[M:5/8] F2 [CE] [CE]2 |[M:1/8] D |[M:3/4] F2 [EG] [FA]2 F | %16
[M:15/16] G->GAB3/2- B3 |[M:3/4] dc B A2 d | [Ec]2 [Ge] [Fd]3 |] %19
V:2
 z3 z2 [D,F,] | [D,A,D]2 [D,D] [D,A,]2 [D,A,] | G,,2 G,, G,,2 G,, | [D,A,]2 [D,D] [D,D]2 [D,A,D] | %4
[M:5/8] G, z z z2 |[M:1/8] D, |[M:3/4] D,2 D, D,2 [D,^A,D] | [G,B,D]2 [G,D] [G,DG]2 [G,DG] | %8
 [^G,B,=F][G,CF] [G,DF] [A,D^F]2 [A,DF] | A,,2 A,, D,3 | z2 z .A,3 | [G,B,D]D, B,, G,,3 | %12
 [D,D]2 [D,D] [D,A,]2 [F,A,D] |[M:5/8] [A,D]2 [A,,A,] [A,,A,]2 |[M:1/8] [D,F,] | %15
[M:3/4] [D,A,D]2 [D,A,] [D,A,]2 [D,^A,D] | %16
[M:15/16][K:treble] [G,B,D]->[G,B,D][G,D][G,DG]3/2- [G,DG]3 | %17
[M:3/4] [^G,B,=F][G,CF] [G,DF] [A,D^F]2 [A,DF] | [A,,A,]2 [A,,A,] [D,A,]3 |] %19
V:3
 x6 | x6 | x6 | x6 |[M:5/8] [D,D]-[D,F,D]D, A,,2 |[M:1/8] x |[M:3/4] x6 | x6 | x6 | x6 | %10
 [D,A,]2 [D,A,]D, z [F,^A,E] | x6 | x6 |[M:5/8] x5 |[M:1/8] x |[M:3/4] x6 | %16
[M:15/16][K:treble] x15/2 |[M:3/4] x6 | x6 |] %19
V:4
 x6 | x6 | x6 | x6 |[M:5/8] x3[K:bass] x2 |[M:1/8] x |[M:3/4][K:treble] x6 | x6 | x6 | x6 | %10
 [Fd]2 .[Fd]2 E,c | x6 | x6 |[M:5/8] x5 |[M:1/8] x |[M:3/4] x6 |[M:15/16] x15/2 |[M:3/4] x6 | x6 |] %19

